X: 83
T: 79. REEL
B: Sam Bayard, "Hill Country Tunes" 1944 #79
S: Played by David P Gilpin, Connellsville, Fayette County, PA, Sep 22 1943.
S: Learned from Steve Piadnik, a Polish fiddler.
N: Variant of Billy in the Lowlands (Low Grounds).
R: reel
Z: 2010 John Chambers <jc:trillian.mit.edu>
M: C|
L: 1/8
K: C
((3e/f/^f/) |: g^fga g=fed | cBcd cBAG | "a."Acdc BGAB |
[1 cBce a3g :|[2 "b."[c3E3]B [c4E4] || [e4E4] c3A | G6 z2 | g3g ^f2g2 |
ag3 {g}^fgfg | e2cB c2A2 | G6 ^f2 | g2g a2B2 | "c."cBcd [c2E2] ||
P: 1st part again
K:G
^AB |: "d."d2d2 e2f2 | g2d2 B3B | ABAG FDEF |[1 GFGA Bc^c2 :|[2 "e."G4 G2 |]
P: Var:
"a."A2dc || "b."[c2E2]cB c4 || "c."[cE][c2E2]B [c2E2] || "d."d3d e2e^f || "e."G3G G2 |]

%%sep 2 1 500
%%sep 1 1 500

